inst/assets/svg/wi-stars.svg

<?xml version="1.0" encoding="UTF-8"?>
<svg xmlns="http://www.w3.org/2000/svg" xmlns:xlink="http://www.w3.org/1999/xlink" width="30pt" height="30pt" viewBox="0 0 30 30" version="1.1">
<g id="surface891">
<path style=" stroke:none;fill-rule:nonzero;fill:rgb(0%,0%,0%);fill-opacity:1;" d="M 5.371094 16.179688 C 6.019531 16.148438 6.570313 15.898438 7.019531 15.429688 C 7.46875 14.960938 7.699219 14.398438 7.699219 13.75 C 7.699219 14.398438 7.921875 14.960938 8.371094 15.429688 C 8.820313 15.898438 9.371094 16.148438 10.019531 16.179688 C 9.371094 16.210938 8.820313 16.460938 8.371094 16.929688 C 7.921875 17.398438 7.699219 17.960938 7.699219 18.609375 C 7.699219 17.960938 7.480469 17.398438 7.019531 16.929688 C 6.570313 16.460938 6.019531 16.210938 5.371094 16.179688 Z M 7.699219 8.980469 C 8.960938 8.921875 10.03125 8.429688 10.910156 7.511719 C 11.789063 6.589844 12.230469 5.5 12.230469 4.230469 C 12.230469 5.5 12.671875 6.589844 13.550781 7.511719 C 14.429688 8.429688 15.5 8.910156 16.769531 8.980469 C 15.941406 9.019531 15.179688 9.25 14.480469 9.691406 C 13.789063 10.121094 13.238281 10.699219 12.828125 11.421875 C 12.429688 12.140625 12.230469 12.910156 12.230469 13.75 C 12.230469 12.480469 11.789063 11.378906 10.910156 10.460938 C 10.03125 9.53125 8.960938 9.039063 7.699219 8.980469 Z M 11.019531 19.75 C 11.96875 19.710938 12.78125 19.339844 13.441406 18.648438 C 14.101563 17.960938 14.429688 17.140625 14.429688 16.179688 C 14.429688 17.140625 14.761719 17.960938 15.421875 18.648438 C 16.078125 19.339844 16.878906 19.710938 17.828125 19.75 C 16.878906 19.789063 16.078125 20.160156 15.421875 20.851563 C 14.761719 21.539063 14.429688 22.359375 14.429688 23.320313 C 14.429688 22.359375 14.101563 21.539063 13.441406 20.851563 C 12.769531 20.160156 11.96875 19.800781 11.019531 19.75 Z M 17.828125 15.011719 C 18.78125 14.96875 19.578125 14.601563 20.238281 13.910156 C 20.898438 13.21875 21.21875 12.398438 21.21875 11.429688 C 21.21875 12.390625 21.550781 13.210938 22.210938 13.898438 C 22.871094 14.589844 23.679688 14.960938 24.628906 15 C 23.679688 15.039063 22.871094 15.410156 22.210938 16.101563 C 21.550781 16.789063 21.21875 17.609375 21.21875 18.570313 C 21.21875 17.609375 20.890625 16.789063 20.238281 16.101563 C 19.578125 15.421875 18.78125 15.050781 17.828125 15.011719 Z M 17.828125 15.011719 "/>
</g>
</svg>

<?xml version="1.0" encoding="utf-8"?>
<!-- Generator: Adobe Illustrator 22.0.1, SVG Export Plug-In . SVG Version: 6.00 Build 0)  -->
<svg version="1.1" id="Layer_1" xmlns="http://www.w3.org/2000/svg" xmlns:xlink="http://www.w3.org/1999/xlink" x="0px" y="0px"
	 viewBox="0 0 30 30" style="enable-background:new 0 0 30 30;" xml:space="preserve">
<path d="M5.37,16.18c0.65-0.03,1.2-0.28,1.65-0.75c0.45-0.47,0.68-1.03,0.68-1.68c0,0.65,0.22,1.21,0.67,1.68
	c0.45,0.47,1,0.72,1.65,0.75c-0.65,0.03-1.2,0.28-1.65,0.75c-0.45,0.47-0.67,1.03-0.67,1.68c0-0.65-0.22-1.21-0.68-1.68
	C6.57,16.46,6.02,16.21,5.37,16.18z M7.7,8.98c1.26-0.06,2.33-0.55,3.21-1.47c0.88-0.92,1.32-2.01,1.32-3.28
	c0,1.27,0.44,2.36,1.32,3.28s1.95,1.4,3.22,1.47c-0.83,0.04-1.59,0.27-2.29,0.71c-0.69,0.43-1.24,1.01-1.65,1.73
	c-0.4,0.72-0.6,1.49-0.6,2.33c0-1.27-0.44-2.37-1.32-3.29C10.03,9.53,8.96,9.04,7.7,8.98z M11.02,19.75
	c0.95-0.04,1.76-0.41,2.42-1.1c0.66-0.69,0.99-1.51,0.99-2.47c0,0.96,0.33,1.78,0.99,2.47c0.66,0.69,1.46,1.06,2.41,1.1
	c-0.95,0.04-1.75,0.41-2.41,1.1c-0.66,0.69-0.99,1.51-0.99,2.47c0-0.96-0.33-1.78-0.99-2.47C12.77,20.16,11.97,19.8,11.02,19.75z
	 M17.83,15.01c0.95-0.04,1.75-0.41,2.41-1.1c0.66-0.69,0.98-1.51,0.98-2.48c0,0.96,0.33,1.78,0.99,2.47s1.47,1.06,2.42,1.1
	c-0.95,0.04-1.76,0.41-2.42,1.1c-0.66,0.69-0.99,1.51-0.99,2.47c0-0.96-0.33-1.78-0.98-2.47C19.58,15.42,18.78,15.05,17.83,15.01z"
	/>
</svg>
